!!!OTL: Zai yang ge
!!!ARE: Asia, China, Shanxi Ziyang
!! I, 70
!!!SCT: C1404
!!!YEM: Copyright 1995, estate of Helmut Schaffrath.
**kern
*ICvox
*Ivox
*M2/4
*k[b-e-a-d-]
*A-:
{16ccc
16eee-
16ccc
16eee-
8bb-
8ccc
=1
8bb-
4ccc
8ccc
=2
8.bb-
16ccc
8ccc
8aa-
=3
4bb-
4ccc}
=4
{8.aa-
16bb-
4ccc
=5
8aa-
16bb-
16aa-
4ff}
=6
{8ccc
16ccc
16ccc
8ccc
8ccc
=7
8aa-
16aa-
16aa-
16ccc
16eee-
8ccc
=8
8bb-
4ccc
8bb-
=9
8.ccc
16bb-
4aa-}
=10
{8ff
16ff
16ff
16aa-
16bb-
8ff
=11
2ee-}
==
!!!AGN: Shange. Nongtian laodong chang
!!!ONB: ESAC (Essen Associative Code) Database: HUANG
!!!AMT: simple duple
!!!AIN: vox
!!!EED: Helmut Schaffrath
!!!EEV: 1.0
*-
